build/Karasa-Jaga/scalable/apps/goa-panel-symbolic.svg

<svg height="16" width="16" xmlns="http://www.w3.org/2000/svg"><g fill="#bebebe"><path d="m4.6101696 7.9661016a.71186441 7.0169492 0 1 1 -1.4237288 0 .71186441 7.0169492 0 1 1 1.4237288 0z" transform="matrix(1.5714286 0 0 1 -2.227603 .033898)"/><path d="m4.03125 1v.0625c.5489062.4482655 1 3.3721743 1 6.9375 0 3.565326-.4510938 6.489235-1 6.9375v.0625l1-.09375c4.063-.38091 6.2042-4.8423 5.9375-7.75-.38437-3.197-2.8928-5.6179-5.9375-6.0625zm1 2.09375c2.0425.42745 3.70495 2.1191 3.96875 4.3125.31355 2.608-1.39125 5.02495-3.96875 5.53125.1582727-2.364384.8295739-4.3608146 0-9.84375z"/><path d="m6.34 3.88c-.77785-.13108-1.2121 1.3358-.29427.81948-.0229-.92977.68165.0909.0766.26611-.45485.0897-.65532-.0705-.94235.45497-.35676.37222-.18167 1.1938.31937.50676.39013-.2891.62946.78353.59147-.0209.0744.16412.37541.50927.60493.35853.56636.11105.62179.66202-.016.52878-.63563.11569-1.6508-.93807-1.6632.26192.0198.64976.007 1.3.0109 1.95.95308-.34702.95854 1.0776.91402 1.72.0923.50281.16312 1.8991.92481 1.2066.49057-.69648.93548-1.3727.84745-2.2536.23169-.35036.95594-1.3628.0629-1.2961-.33412-.25815-.69825-1.7197-.18848-.8122.046.76672.7391.98167 1.0293.20833.35039-.39282-.91916-.47489-.30833-.69789.44865.57012.93158.0258.52953-.49467-.37325-.79864-.83934-2.1753-1.7216-2.2971-.27079.22095-.49588-.13404-.12291-.20005-.18632-.13561-.46288-.0776-.65405-.20889z" opacity=".3"/><path d="m14.09 3c-.74361-.0366-1.5117.36762-1.7812 1.1562-.28648.84634.1721 1.6285.625 2.125.50634.55116.92597 1.0521.9375 1.5938h.0312c.0101.12705-.0578.32333-.15625.4375-.0985.11417-.19795.16596-.3125.15625-.16676-.0191-.2944-.11077-.46875-.28125-.16979-.16602-.35398-.39175-.59375-.625-.007-.007-.0246.007-.0312 0-.59634-.64592-1.6103-.78957-2.2812-.15625l.6875.75c.2182-.20596.69681-.17266.90625.0625v.0312c.16445.15757.37436.41118.625.65625s.60354.47879 1.0625.53125c.4719.04.88833-.15809 1.1562-.46875.26137-.30307.3995-.70745.375-1.125-.00023-.011.00039-.0203 0-.0312-.0363-1.0088-.73453-1.6917-1.2188-2.2188-.32738-.35889-.51919-.79134-.40625-1.125.0978-.28616.46274-.49156.8125-.46875h.0312.0312c.57283-.0201.70488.003 1.3125 0v-1c-.56205.003-.73654-.0187-1.3125 0-.0137.00045-.0171-.0005-.0312 0z"/><path d="m1.09375 5.03125c-.37559323 0-.6875.2806568-.6875.65625v.625c0 .3755932.31190677.65625.6875.65625h2.6875c.3755932 0 .6875-.2806568.6875-.65625v-.625c0-.3755932-.3119068-.65625-.6875-.65625zm0 4c-.37559323 0-.6875.2806568-.6875.65625v.625c0 .375593.31190677.65625.6875.65625h2.6875c.3755932 0 .6875-.280657.6875-.65625v-.625c0-.3755932-.3119068-.65625-.6875-.65625z"/></g></svg>

<?xml version="1.0" encoding="UTF-8" standalone="no"?>
<!-- Created with Inkscape (http://www.inkscape.org/) -->

<svg
   xmlns:dc="http://purl.org/dc/elements/1.1/"
   xmlns:cc="http://creativecommons.org/ns#"
   xmlns:rdf="http://www.w3.org/1999/02/22-rdf-syntax-ns#"
   xmlns:svg="http://www.w3.org/2000/svg"
   xmlns="http://www.w3.org/2000/svg"
   xmlns:sodipodi="http://sodipodi.sourceforge.net/DTD/sodipodi-0.dtd"
   xmlns:inkscape="http://www.inkscape.org/namespaces/inkscape"
   id="svg7384"
   height="16"
   width="16"
   version="1.1"
   inkscape:version="0.48.3.1 r9886"
   sodipodi:docname="goa-panel-symbolic.svg">
  <defs
     id="defs11" />
  <sodipodi:namedview
     pagecolor="#ffffff"
     bordercolor="#666666"
     borderopacity="1"
     objecttolerance="10"
     gridtolerance="10"
     guidetolerance="10"
     inkscape:pageopacity="0"
     inkscape:pageshadow="2"
     inkscape:window-width="1366"
     inkscape:window-height="696"
     id="namedview9"
     showgrid="false"
     inkscape:zoom="14.75"
     inkscape:cx="-2.5762712"
     inkscape:cy="8"
     inkscape:window-x="0"
     inkscape:window-y="0"
     inkscape:window-maximized="1"
     inkscape:current-layer="svg7384" />
  <metadata
     id="metadata90">
    <rdf:RDF>
      <cc:Work
         rdf:about="">
        <dc:format>image/svg+xml</dc:format>
        <dc:type
           rdf:resource="http://purl.org/dc/dcmitype/StillImage" />
        <dc:title>Gnome Symbolic Icon Theme</dc:title>
      </cc:Work>
    </rdf:RDF>
  </metadata>
  <title
     id="title9167">Gnome Symbolic Icon Theme</title>
  <g
     id="g3024">
    <path
       transform="matrix(1.5714286,0,0,1,-2.2276029,0.03389835)"
       d="m 4.6101696,7.9661016 a 0.71186441,7.0169492 0 1 1 -1.4237288,0 0.71186441,7.0169492 0 1 1 1.4237288,0 z"
       sodipodi:ry="7.0169492"
       sodipodi:rx="0.71186441"
       sodipodi:cy="7.9661016"
       sodipodi:cx="3.8983052"
       id="path2991"
       style="fill:#bebebe;fill-opacity:1;stroke:none"
       sodipodi:type="arc" />
    <path
       sodipodi:nodetypes="ccsccsccccccc"
       inkscape:connector-curvature="0"
       id="path7920"
       d="m 4.03125,1 0,0.0625 c 0.5489062,0.4482655 1,3.3721743 1,6.9375 0,3.565326 -0.4510938,6.489235 -1,6.9375 l 0,0.0625 1,-0.09375 c 4.063,-0.38091 6.2042,-4.8423 5.9375,-7.75 -0.38437,-3.197 -2.8928,-5.6179 -5.9375,-6.0625 z m 1,2.09375 C 7.07375,3.5212 8.7362,5.21285 9,7.40625 c 0.31355,2.608 -1.39125,5.02495 -3.96875,5.53125 0.1582727,-2.364384 0.8295739,-4.3608146 0,-9.84375 z"
       style="text-indent:0;text-transform:none;block-progression:tb;color:#000000;fill:#bebebe" />
    <path
       id="path7922"
       style="opacity:0.3;color:#000000;fill:#bebebe"
       d="M 6.34,3.88 C 5.56215,3.74892 5.1279,5.2158 6.04573,4.69948 6.02283,3.76971 6.72738,4.79038 6.12233,4.96559 5.66748,5.05529 5.46701,4.89509 5.17998,5.42056 4.82322,5.79278 4.99831,6.61436 5.49935,5.92732 5.88948,5.63822 6.12881,6.71085 6.09082,5.90642 6.16522,6.07054 6.46623,6.41569 6.69575,6.26495 7.26211,6.376 7.31754,6.92697 6.67975,6.79373 6.04412,6.90942 5.02895,5.85566 5.01655,7.05565 c 0.0198,0.64976 0.007,1.3 0.0109,1.95 0.95308,-0.34702 0.95854,1.0776 0.91402,1.72 0.0923,0.50281 0.16312,1.8991 0.92481,1.2066 0.49057,-0.69648 0.93548,-1.3727 0.84745,-2.2536 C 7.94542,9.32829 8.66967,8.31585 7.77663,8.38255 7.44251,8.1244 7.07838,6.66285 7.58815,7.57035 7.63415,8.33707 8.32725,8.55202 8.61745,7.77868 8.96784,7.38586 7.69829,7.30379 8.30912,7.08079 8.75777,7.65091 9.2407,7.10659 8.83865,6.58612 8.4654,5.78748 7.99931,4.41082 7.11705,4.28902 6.84626,4.50997 6.62117,4.15498 6.99414,4.08897 6.80782,3.95336 6.53126,4.01137 6.34009,3.88008 z"
       inkscape:connector-curvature="0" />
    <path
       id="path8472"
       style="text-indent:0;text-transform:none;block-progression:tb;color:#000000;fill:#bebebe;enable-background:new"
       d="m 14.09,3 c -0.74361,-0.0366 -1.5117,0.36762 -1.7812,1.1562 -0.28648,0.84634 0.1721,1.6285 0.625,2.125 0.50634,0.55116 0.92597,1.0521 0.9375,1.5938 h 0.0312 C 13.9126,8.00205 13.8447,8.19833 13.74625,8.3125 13.64775,8.42667 13.5483,8.47846 13.43375,8.46875 13.26699,8.44965 13.13935,8.35798 12.965,8.1875 12.79521,8.02148 12.61102,7.79575 12.37125,7.5625 c -0.007,-0.007 -0.0246,0.007 -0.0312,0 -0.59634,-0.64592 -1.6103,-0.78957 -2.2812,-0.15625 l 0.6875,0.75 c 0.2182,-0.20596 0.69681,-0.17266 0.90625,0.0625 v 0.0312 c 0.16445,0.15757 0.37436,0.41118 0.625,0.65625 0.25064,0.24507 0.60354,0.47879 1.0625,0.53125 0.4719,0.04 0.88833,-0.15809 1.1562,-0.46875 0.26137,-0.30307 0.3995,-0.70745 0.375,-1.125 -2.3e-4,-0.011 3.9e-4,-0.0203 0,-0.0312 C 14.835,6.8037 14.13677,6.1208 13.6525,5.5937 13.32512,5.23481 13.13331,4.80236 13.24625,4.4687 c 0.0978,-0.28616 0.46274,-0.49156 0.8125,-0.46875 h 0.0312 0.0312 c 0.57283,-0.0201 0.70488,0.003 1.3125,0 v -1 c -0.56205,0.003 -0.73654,-0.0187 -1.3125,0 -0.0137,4.5e-4 -0.0171,-5e-4 -0.0312,0 z"
       inkscape:connector-curvature="0" />
    <path
       id="rect2997"
       d="M 1.09375 5.03125 C 0.71815677 5.03125 0.40625 5.3119068 0.40625 5.6875 L 0.40625 6.3125 C 0.40625 6.6880932 0.71815677 6.96875 1.09375 6.96875 L 3.78125 6.96875 C 4.1568432 6.96875 4.46875 6.6880932 4.46875 6.3125 L 4.46875 5.6875 C 4.46875 5.3119068 4.1568432 5.03125 3.78125 5.03125 L 1.09375 5.03125 z M 1.09375 9.03125 C 0.71815677 9.03125 0.40625 9.3119068 0.40625 9.6875 L 0.40625 10.3125 C 0.40625 10.688093 0.71815677 10.96875 1.09375 10.96875 L 3.78125 10.96875 C 4.1568432 10.96875 4.46875 10.688093 4.46875 10.3125 L 4.46875 9.6875 C 4.46875 9.3119068 4.1568432 9.03125 3.78125 9.03125 L 1.09375 9.03125 z "
       style="fill:#bebebe;fill-opacity:1;stroke:none" />
  </g>
</svg>
